remix/Development/code-s-fill.svg

<svg viewBox="0 0 24 24" fill="currentColor" xmlns="http://www.w3.org/2000/svg"><path d="M24 12L18.3431 17.6568L16.9289 16.2426L21.1716 12L16.9289 7.75735L18.3431 6.34314L24 12ZM2.82843 12L7.07107 16.2426L5.65685 17.6568L0 12L5.65685 6.34314L7.07107 7.75735L2.82843 12Z"/></svg>

<svg viewBox="0 0 24 24" xmlns="http://www.w3.org/2000/svg"><path fill="none" d="M0 0h24v24H0Z"/><path d="M24 12l-5.657 5.657 -1.42-1.42 4.24-4.25 -4.25-4.243 1.41-1.42 5.65 5.657ZM2.82 12l4.243 4.24 -1.42 1.41 -5.657-5.66 5.65-5.66 1.41 1.41L2.8 11.98Z"/></svg>
